X: 27441
T: Molly Bán
R: reel
M: 4/4
K: Edorian
EBBA B2 AG|FDAD BDAD|EBBA B2 Bc|dBAF BAGF|
EBBA B2 AG|FDAD BDAD|EBBA B2 Bc|dBAF GE E2:|
e2 Be edeg|dBBc d3 d|e2 Be edeg|dBAF GE E2|
eBGB effe|dBBc d3 e|f3 e defe|dBAF GE E2:|

